X:1
T:Seniores populi - Viadana
T:James Gibb editions
T:#
%%score [ 1 2 3 4 ]
L:1/8
Q:1/4=200
M:none
K:F
V:1 treble nm="Soprano" snm="S"
V:2 treble nm="Alto" snm="A"
V:3 treble-8 nm="Tenor" snm="T"
V:4 bass nm="Bass" snm="B"
V:1
"^Seniores populi""^Ludovico da Viadana\n(1560-1627)" c12 c4 | d4 e4 f6 f2 | e4 c4 c6 c2 | %3
w: Se- ni-|o- res po- pu-|li con- si- li-|
 c4 d4 B8 | A16 || A8 A4 A4 | B8 c4 c4 | d8 c4 c4 | A4 c8 =B4 | c8 z4 c4 | d6 d2 c4 c4 | %11
w: um fe- ce-|runt,|Ut Je- sum|do- lo te-|ne- rent, et|oc- ci- de-|rent: cum|gla- di- us et|
 B6 A2 B4 A4- | A4 A4 A4 G4 | A16 | G8 (c6 B2 | A4) A4 B8 | A16 || A16 | A12 c4- | c4 =B4 c16 || %20
w: fu- sti- bus ex\-|* i- e- runt|tam-|quam ad *|* la- tro-|nem.|Collegerunt~Pontifices~et~Pharisaei|con- ci\-|* li- um.|
 A8 A4 A4 | B8 c4 c4 | d8 c4 c4 | A4 c8 =B4 | c8 z4 c4 | d6 d2 c4 c4 | B6 A2 B4 A4- | A4 A4 A4 G4 | %28
w: Ut Je- sum|do- lo te-|ne- rent, et|oc- ci- de-|rent: cum|gla- di- us et|fu- sti- bus ex\-|* i- e- runt|
 A16 |[Q:1/4=195] G8[Q:1/4=189] (c6[Q:1/4=185] B2 |[Q:1/4=182] A4)[Q:1/4=178] A4[Q:1/4=173] B8 | %31
w: tam-|quam ad *|* la- tro-|
[Q:1/4=170] A16 |] %32
w: nem.|
V:2
 A12 A4 | A4 A4 A6 A2 | A4 A4 A6 A2 | A4 F4 G8 | C16 || F8 ^F4 F4 | G8 A4 A4 | (F4 G4) A4 A4- | %8
w: Se- ni-|o- res po- pu-|li con- si- li-|um fe- ce-|runt,|Ut Je- sum|do- lo te-|ne\- * rent, et|
 A4 E4 G6 G2 | G8 z4 G4 | B6 B2 A4 A4 | G6 A2 G4 F4- | F4 F4 (E4 D4 | E8) ^F8 | z4 E4 G4 F4- | %15
w: * oc- ci- de-|rent: cum|gla- di- us et|fu- sti- bus ex\-|* i- e\- *|* runt|tam- quam ad|
 F4 F4 F8 | F16 || F16 | F8 (E6 F2 | G4) G4 G16 || F8 ^F4 F4 | G8 A4 A4 | (F4 G4) A4 A4- | %23
w: * la- tro-|nem.|Collegerunt~Pontifices~et~Pharisaei|con- ci\- *|* li- um.|Ut Je- sum|do- lo te-|ne\- * rent, et|
 A4 E4 G6 G2 | G8 z4 G4 | B6 B2 A4 A4 | G6 A2 G4 F4- | F4 F4 (E4 D4 | E8) ^F8 | z4 E4 G4 F4- | %30
w: * oc- ci- de-|rent: cum|gla- di- us et|fu- sti- bus ex\-|* i- e\- *|* runt|tam- quam ad|
 F4 F4 F8 | F16 |] %32
w: * la- tro-|nem.|
V:3
 f12 f4 | f4 e4 d6 d2 | ^c4 e4 e6 e2 | e4 d4 (d4 e4) | f16 || c8 d4 d4 | d8 f4 f4 | d8 e4 f4- | %8
w: Se- ni-|o- res po- pu-|li con- si- li-|um fe- ce\- *|runt,|Ut Je- sum|do- lo te-|ne- rent, et|
 f4 c4 d6 d2 | c8 z4 e4 | f6 g2 e4 f4 | d6 d2 d8 | d8 c4 (d4- | d4 ^c4) d4 ^f4 | d4 e8 c4 | %15
w: * oc- ci- de-|rent: cum|gla- di- us et|fu- sti- bus|ex- i- e\-|* * runt tam-|quam ad la-|
 (c8 d8) | c16 || d16 | c8 (c8 | d6) d2 c16 || c8 d4 d4 | d8 f4 f4 | d8 e4 f4- | f4 c4 d6 d2 | %24
w: tro\- *|nem.|Collegerunt~Pontifices~et~Pharisaei|con- ci\-|* li- um.|Ut Je- sum|do- lo te-|ne- rent, et|* oc- ci- de-|
 c8 z4 e4 | f6 g2 e4 f4 | d6 d2 d8 | d8 c4 (d4- | d4 ^c4) d4 ^f4 | d4 e8 c4 | (c8 d8) | c16 |] %32
w: rent: cum|gla- di- us et|fu- sti- bus|ex- i- e\-|* * runt tam-|quam ad la-|tro\- *|nem.|
V:4
 F,12 F,4 | D,4 ^C,4 D,6 D,2 | A,,4 A,4 A,6 A,2 | A,4 B,4 G,8 | F,16 || F,8 D,4 D,4 | G,8 F,4 F,4 | %7
w: Se- ni-|o- res po- pu-|li con- si- li-|um fe- ce-|runt,|Ut Je- sum|do- lo te-|
 B,8 A,4 F,4- | F,4 A,4 G,6 G,2 | C,8 z4 C4 | B,6 G,2 A,4 F,4 | G,6 ^F,2 G,4 (D,4- | %12
w: ne- rent, et|* oc- ci- de-|rent: cum|gla- di- us et|fu- sti- bus ex\-|
 D,2 E,2 !courtesy!=F,2 G,2 A,4) B,4 | A,8 D,4 D4 | =B,4 (C6 _B,2 A,2 G,2 | F,4) F,4 B,8 | F,16 || %17
w: * * * * * i-|e- runt tam-|quam ad * * *|* la- tro-|nem.|
 D,16 | F,8 (A,8 | G,6) G,2 C,16 || F,8 D,4 D,4 | G,8 F,4 F,4 | B,8 A,4 F,4- | F,4 A,4 G,6 G,2 | %24
w: Collegerunt~Pontifices~et~Pharisaei|con- ci\-|* li- um.|Ut Je- sum|do- lo te-|ne- rent, et|* oc- ci- de-|
 C,8 z4 C4 | B,6 G,2 A,4 F,4 | G,6 ^F,2 G,4 (D,4- | D,2 E,2 !courtesy!=F,2 G,2 A,4) B,4 | %28
w: rent: cum|gla- di- us et|fu- sti- bus ex\-|* * * * * i-|
 A,8 D,4 D4 | =B,4 (C6 _B,2 A,2 G,2 | F,4) F,4 B,8 | F,16 |] %32
w: e- runt tam-|quam ad * * *|* la- tro-|nem.|

